assets/img/space__slide2-1.svg

<svg xmlns="http://www.w3.org/2000/svg" viewBox="0 0 66 66" enable-background="new 0 0 66 66"><style type="text/css">.st0{fill:#262626;}</style><path class="st0" d="M52.8 33h-5.2v-9.5c1.8-.5 3.1-2.1 3.1-4.1v-13.3c0-2.4-1.9-4.3-4.3-4.3h-26.8c-2.4 0-4.3 1.9-4.3 4.3v13.3c0 2 1.3 3.6 3.1 4.1v9.5h-5.2v6.2h3.1v23.9c0 .6.5 1 1 1 .6 0 1-.5 1-1v-17.6h2.1v15.6c0 .6.5 1 1 1 .6 0 1-.5 1-1v-15.6h20.8v15.6c0 .6.5 1 1 1 .6 0 1-.5 1-1v-15.6h2.1v17.7c0 .6.5 1 1 1 .6 0 1-.5 1-1v-24h3.1v-6.2zm-35.4-13.6v-13.3c0-1.2 1-2.2 2.2-2.2h26.8c1.2 0 2.2 1 2.2 2.2v13.3c0 1.2-1 2.2-2.2 2.2h-26.8c-1.2 0-2.2-1-2.2-2.2zm3.1 4.2h25v9.4h-25v-9.4zm-2.1 19.8v-4.2h2.1v4.2h-2.1zm4.2 0v-4.2h20.8v4.2h-20.8zm25 0h-2.1v-4.2h2.1v4.2zm3.1-6.2h-35.4v-2.1h35.4v2.1zm0 0M27.8 13.2h10.4c1.7 0 3.1-1.4 3.1-3.1 0-1.7-1.4-3.1-3.1-3.1h-10.4c-1.7 0-3.1 1.4-3.1 3.1 0 1.7 1.4 3.1 3.1 3.1zm0-4.1h10.4c.6 0 1 .5 1 1 0 .6-.5 1-1 1h-10.4c-.6 0-1-.5-1-1 0-.6.4-1 1-1zm0 0"/></svg>

<?xml version="1.0" encoding="utf-8"?>
<!-- Generator: Adobe Illustrator 19.2.0, SVG Export Plug-In . SVG Version: 6.00 Build 0)  -->
<svg version="1.1" id="Layer_1" xmlns="http://www.w3.org/2000/svg" xmlns:xlink="http://www.w3.org/1999/xlink" x="0px" y="0px"
	 viewBox="0 0 66 66" style="enable-background:new 0 0 66 66;" xml:space="preserve">
<style type="text/css">
	.st0{fill:#262626;}
</style>
<g>
	<path class="st0" d="M52.8,33h-5.2v-9.5c1.8-0.5,3.1-2.1,3.1-4.1V6.1c0-2.4-1.9-4.3-4.3-4.3H19.6c-2.4,0-4.3,1.9-4.3,4.3v13.3
		c0,2,1.3,3.6,3.1,4.1V33h-5.2v6.2h3.1v23.9c0,0.6,0.5,1,1,1c0.6,0,1-0.5,1-1V45.5h2.1v15.6c0,0.6,0.5,1,1,1c0.6,0,1-0.5,1-1V45.5
		h20.8v15.6c0,0.6,0.5,1,1,1c0.6,0,1-0.5,1-1V45.5h2.1v17.7c0,0.6,0.5,1,1,1c0.6,0,1-0.5,1-1V39.2h3.1V33z M17.4,19.4V6.1
		c0-1.2,1-2.2,2.2-2.2h26.8c1.2,0,2.2,1,2.2,2.2v13.3c0,1.2-1,2.2-2.2,2.2H19.6C18.4,21.6,17.4,20.6,17.4,19.4L17.4,19.4z
		 M20.5,23.6h25V33h-25V23.6z M18.4,43.4v-4.2h2.1v4.2H18.4z M22.6,43.4v-4.2h20.8v4.2H22.6z M47.6,43.4h-2.1v-4.2h2.1V43.4z
		 M50.7,37.2H15.3v-2.1h35.4V37.2z M50.7,37.2"/>
	<path class="st0" d="M27.8,13.2h10.4c1.7,0,3.1-1.4,3.1-3.1c0-1.7-1.4-3.1-3.1-3.1H27.8c-1.7,0-3.1,1.4-3.1,3.1
		C24.7,11.8,26.1,13.2,27.8,13.2L27.8,13.2z M27.8,9.1h10.4c0.6,0,1,0.5,1,1c0,0.6-0.5,1-1,1H27.8c-0.6,0-1-0.5-1-1
		C26.8,9.5,27.2,9.1,27.8,9.1L27.8,9.1z M27.8,9.1"/>
</g>
</svg>
